icons/themes/default/question.svg

<svg viewBox="0 0 16 16" fill="none" xmlns="http://www.w3.org/2000/svg">
<circle cx="8" cy="8" r="6" stroke="currentColor" />
<path d="M7.375 9.40847V9.341C7.37973 8.90066 7.42353 8.55028 7.50639 8.28986C7.59162 8.02944 7.71236 7.81874 7.86861 7.65776C8.02486 7.49677 8.21307 7.34999 8.43324 7.21742C8.57528 7.12746 8.70312 7.02684 8.81676 6.91557C8.9304 6.8043 9.02036 6.67646 9.08665 6.53205C9.15294 6.38764 9.18608 6.22784 9.18608 6.05265C9.18608 5.84195 9.13636 5.65965 9.03693 5.50577C8.9375 5.35189 8.80492 5.23352 8.6392 5.15066C8.47585 5.06543 8.29356 5.02282 8.09233 5.02282C7.91004 5.02282 7.73603 5.0607 7.57031 5.13645C7.40459 5.21221 7.26728 5.33058 7.15838 5.49157C7.04948 5.65018 6.98674 5.85497 6.97017 6.10591H5.89062C5.9072 5.67978 6.01491 5.31993 6.21378 5.02637C6.41264 4.73044 6.67543 4.50672 7.00213 4.3552C7.3312 4.20369 7.6946 4.12793 8.09233 4.12793C8.52794 4.12793 8.90909 4.20961 9.2358 4.37296C9.5625 4.53394 9.81581 4.76003 9.99574 5.05123C10.178 5.34005 10.2692 5.67741 10.2692 6.0633C10.2692 6.32845 10.2277 6.56756 10.1449 6.78063C10.062 6.99133 9.94366 7.17954 9.78977 7.34526C9.63826 7.51098 9.45597 7.65776 9.2429 7.7856C9.04167 7.91107 8.87831 8.04128 8.75284 8.17623C8.62973 8.31117 8.53977 8.47097 8.48295 8.65563C8.42614 8.84029 8.39536 9.06874 8.39062 9.341V9.40847H7.375ZM7.91122 11.5676C7.71709 11.5676 7.55019 11.4989 7.41051 11.3616C7.27083 11.2219 7.20099 11.0538 7.20099 10.8573C7.20099 10.6632 7.27083 10.4975 7.41051 10.3602C7.55019 10.2205 7.71709 10.1507 7.91122 10.1507C8.10298 10.1507 8.2687 10.2205 8.40838 10.3602C8.55043 10.4975 8.62145 10.6632 8.62145 10.8573C8.62145 10.9875 8.58831 11.1071 8.52202 11.216C8.4581 11.3225 8.37287 11.4078 8.26634 11.4717C8.1598 11.5356 8.04143 11.5676 7.91122 11.5676Z" fill="currentColor" />
</svg>

<svg xmlns="http://www.w3.org/2000/svg" fill="none" viewBox="0 0 16 16">
  <circle cx="8" cy="8" r="6" stroke="currentColor"/>
  <path fill="currentColor" d="M7.375 9.408v-.067c.005-.44.049-.79.131-1.051a1.61 1.61 0 0 1 .363-.632c.156-.161.344-.308.564-.44.142-.09.27-.191.384-.302a1.28 1.28 0 0 0 .27-.384c.066-.144.1-.304.1-.48 0-.21-.05-.392-.15-.546a.994.994 0 0 0-.398-.355 1.164 1.164 0 0 0-.547-.128c-.182 0-.356.038-.522.113a.989.989 0 0 0-.412.356 1.209 1.209 0 0 0-.188.614H5.89c.017-.426.125-.786.324-1.08a1.89 1.89 0 0 1 .788-.67c.33-.152.693-.228 1.09-.228.436 0 .817.082 1.144.245.326.16.58.387.76.678.182.289.273.626.273 1.012 0 .265-.041.505-.124.718a1.78 1.78 0 0 1-.355.564 2.424 2.424 0 0 1-.547.44 2.397 2.397 0 0 0-.49.391 1.243 1.243 0 0 0-.27.48 2.512 2.512 0 0 0-.092.685v.067H7.375Zm.536 2.16a.69.69 0 0 1-.5-.206.688.688 0 0 1-.21-.505c0-.194.07-.36.21-.497.14-.14.306-.21.5-.21a.68.68 0 0 1 .497.21.666.666 0 0 1 .213.497c0 .13-.033.25-.099.359a.735.735 0 0 1-.256.256.677.677 0 0 1-.355.096Z"/>
</svg>
